X: 32
T: Piano Sonata No. 7 in C major, K 309 (284b), mvmt. 2
C: Wolfgang Amadeus Mozart
%%abc-version 2.0
%%abcx-abcm2ps-target-version 5.9.1 (29 Sep 2008)
%%abc-creator hum2abc beta
%%abcx-conversion-date 2021/01/14 17:01:33
%%abc-copyright 2018 Craig Stuart Sapp
%%abc-edited-by Craig Stuart Sapp
%%abc-edited-by Craig Stuart Sapp
%%abcx-initial-encoding-date 2009/09/24
%%gracespace 0 6 6
%%humdrum-veritas 2711219678
%%humdrum-veritas-data 3319122180
%%linebreak <none>
%%barnumbers 0
L: 1/16
M: 3/4
N: Derived from sonata07-2.krn
Q: "Andante un poco adagio" 1/4=60
%%staves {1 2}
V: 1 clef=treble
V: 2 clef=bass
K: F
[V:1] A>FB>G c2>A2 F2 z2 | 
[V:2] z4A,2>C2 A,2 z2 & z4F,6z2 | 
[V:1] d>Be>c f2>c2 A2 z2 | 
[V:2] z4C2>F2 C2 z2 & z4A,6z2 | 
[V:1] f>cg>e a>gf>e f>cd3/A/ | 
[V:2] z4z4z2 [F,2A,2] | 
[V:1] [D2c2][E2B2] {/AB} [F2A2] z2 .A.B.=B.c | 
[V:2] G,2C,2 F,2 z2z4 | 
[V:1] F3G/F/ E2 z e gfed | 
[V:2] x8x2 A,2 & [C,4-A,4][C,2G,2] B,2A,2F,2 | 
[V:1] c3d/c/ =B2 z _B bgfe | 
[V:2] D4>_D4C4- & G,4>F,4 E,2B,2 | 
[V:1] f/g/f/g/ a/b/a/b/ c'2 z c edcB & x4x2> F2 F2F2 | 
[V:2] C4z2 A,,2B,,2D,2 & A,4x8 | 
[V:1] A3B/A/G4z4 & F4E4z4 | 
[V:2] C,4>B,,4A,,2G,,2 | 
[V:1] A>FB>G c2>A2 F2 z2 | 
[V:2] F,,2 z2 A,2>C2 A,2 z2 & x4F,6z2 | 
[V:1] d>Be>c f2>c2 A2 z2 | 
[V:2] z4C2>F2 C2 z2 & z4A,6z2 | 
[V:1] c'>ab>g a>fg>e f>cd3/A/ | 
[V:2] z4[K:clef=treble]c>AB>G A2^F2 | 
[V:1] c2!trill!B2 {/AB} A2 z2 .A.B.=B.c | 
[V:2] G2E2 =F2 z2z4[K:clef=bass] | 
[V:1] F3G/F/ E2 z e gfed | 
[V:2] [C,4-A,4][C,2G,2] z2z4 | 
[V:1] c=B_B2 z2 z G2< [C2A2]B | 
[V:2] [G,2D2][E,2C2] z2 z E,,2< F,,2G,, | 
[V:1] [F2c2]>d2 [A,2F2] z2 AGFG & x8_B,4 | 
[V:2] A,,2>B,,2 C,2 z2C,,4 | 
[V:1] [B,4G4][A,2F2] C2A,2C2 | 
[V:2] F,,4>C,4A,,2C,2 | 
[V:1] {/F/8} A>F{/G/8}B>G {/A/8} c2>A2 F2 z2 | 
[V:2] F,,2 z2 A,2>C2 A,2 z2 & x4{/F,/8}F,6z2 | 
[V:1] {/B/8} d>B{/c/8}e>c {/c/8} f2>c2 A2 z2 | 
[V:2] z4C2>F2 C2 z2 & z4{/A,/8}A,6z2 | 
[V:1] {/c/8} f>c{/e//}g>e {/f/8} a>g{/g/8}f>e {/e/8} d>c{/c/8}B3/A/ | 
[V:2] z4z4z2 [F,2C2] | 
[V:1] c=Bc_B A2 z2 A/B/A/B/ =B/c/B/c/ | 
[V:2] C6x6 & G,2E,2 F,2 z2z4 | 
[V:1] F3G/F/ E2 z e g/f/e/f/ g/f/e/d/ | 
[V:2] [F,4A,4][G,2B,2]C4A,2 & C,4-C,2 B,2A,2F,2 | 
[V:1] c3d/c/ =B2 z _B b/a/b/a/ b/g/f/e/ | 
[V:2] D4>_D4 C2C2- & G,4>F,4 E,2B,2 | 
[V:1] !turn!f>g!turn!a>b c'f=e_e d_dcB | 
[V:2] C4z2F,4F,2 & A,4z2 A,,2B,,2D,2 | 
[V:1] A3B/A/G4z4 | 
[V:2] F,4E,2 (3B,,C,B,, (3A,,B,,A,, (3G,,A,,G,, & C,6x6 | 
[V:1] A/G/A/F/ B/A/B/G/ c2-c/=B/c/A/ F2 z2 | 
[V:2] F,,2 z4<[F,4A,4]z2 | 
[V:1] d/c/d/_B/ e/d/e/c/ f2-f/e/f/c/ A2 z2 | 
[V:2] z4[A,6C6]z2 | 
[V:1] c'/=b/c'/a/ _b/a/b/g/ a/g/a/f/ g/f/g/e/ f/g/a/e/ f/c/d/A/ | 
[V:2] z4[K:clef=treble]c/=B/c/A/ _B/A/B/G/ A3F | 
[V:1] c>Bg>B A2 z2 (3:2:6AB=B!beambr1!c^cd | 
[V:2] G2E2 F2 z2z4[K:clef=bass] | 
[V:1] F3G/F/ E2 z e (3:2:6g^f=f!beambr1!e_ed | 
[V:2] [C,4-A,4][C,2G,2] z2z4 | 
[V:1] (3c=Bg _B2 z2 z[K:clef=bass] G, A,/B,/A,/G,/A,/B,/A,/B,/ | 
[V:2] [G,2D2][E,2C2] z2 z E,,2< F,,2G,, | 
[V:1] C/D/C/B,/C/D/C/D/ F,2 z2 A,G,F,G, & x8E,4 | 
[V:2] A,,2>_B,,2 C,2 z2[C,,4B,,4] | 
[V:1] G,4F,2x6[K:clef=treble] & E,4F,2 z2z4 | 
[V:2] [F,,4-B,,4][F,,2A,,2] [F,,2F,2][E,,2E,2][D,,2D,2] | 
[V:1] EGceg4-!turn!g3a | 
[V:2] [C,,4C,4][K:clef=treble]z2 [C2E2][C2E2][C2E2] | 
[V:1] c4=B2 z2 Bdf=b | 
[V:2] z2 [D2F2][D2F2][D2F2][D2F2][D2F2][K:clef=bass] | 
[V:1] d'2>=b2 f'd'bg ^fga=f | 
[V:2] z2 [G,2=B,2][G,2B,2][G,2B,2][G,2B,2][G,2B,2] | 
[V:1] ^d4e2 z2 cegc' | 
[V:2] z2 [C,2C2][C,2C2][C,2C2] E,,2E,2 | 
[V:1] c'=dd2- dc'_ec' c=egc' & c8c4 | 
[V:2] F,,2F,>E, F,2^F,2 G,2G,,2 | 
[V:1] c'ff2- fc'^fc' cegb & c8c4 | 
[V:2] A,,2A,>^G, A,2A,,2 E,,2E,2 | 
[V:1] x8{/e//} d3c & ^gafdc4=B4 | 
[V:2] C2D2E4F4 & F,4=G,4G,4 | 
[V:1] c12- & c8-c2^c2 | 
[V:2] E2 x2x8 & C2 C,2C2_B,2A,2G,2 | 
[V:1] d4-d3e/^f/ g2d2 & c4_B8- | 
[V:2] ^F,2D,2 B,2A,2 G,2=F,2 | 
[V:1] c4-c3d/e/ =f2c2 & B4A8- | 
[V:2] E,2C,2 A,2G,2 F,2E,2 | 
[V:1] B4-B2cB A2cB & A2G^F G2E2 F2AG | 
[V:2] D,4E,2C,2 D,2B,,2 | 
[V:1] A4G2 z2z4 & F4E2x6 | 
[V:2] C,2C2 CC,B,B,, A,A,,G,G,, | 
[V:1] A<FB<G c3(3B/A/G/ F2 z2 | 
[V:2] [F,,2F,2] z4<[F,4A,4]z2 | 
[V:1] d<Be<c f3e//d//c//B// A2 z2 | 
[V:2] z4[A,6C6]z2 | 
[V:1] f<ca<f c'<^ga<e f<cd/A3/ | 
[V:2] z4z4z2 [F,2A,2] | 
[V:1] c<=Bc<_B A2 z2 .[Aa].[Bb].[=B=b].[cc'] | 
[V:2] [D,2F,2][E,2G,2] [F,2C2] z2z4 | 
[V:1] f3g/f/ e2 z [Ee] [Gg][Ff][Ee][Dd] & F4E2x6 | 
[V:2] [C,4-A,4][C,2G,2] z2z4 | 
[V:1] [Cc][=B,=B][_B,2_B2] z2 z g c'>ab3/e/ | 
[V:2] [D,2F,2][E,2G,2]z4[F,,2A,,2][G,,2C,2-] | 
[V:1] x8AGFG & f>cd>F F2 z2E4 | 
[V:2] [A,,2C,2][B,,2F,2] [C,2A,2] z2[C,4B,4] | 
[V:1] G4F2 z2z4 & E4F2z6 | 
[V:2] [F,4-B,4][F,2A,2] F,,<F, E,,<E, D,,/D,3/ | 
[V:1] E/G/F/E/ F/G/A/=B/ c/d/c/B/ c/d/e/f/ g/a/g/^f/ g/a/g/a/ | 
[V:2] [C,,4C,4]z2[K:clef=treble] [C2E2][C2E2][C2E2] | 
[V:1] c3d/c/ =B2 z2 z Bdf | 
[V:2] z2 [D2F2][D2F2][D2F2][D2F2][D2F2][K:clef=bass] | 
[V:1] =b>fd'>b f'/e'/d'/e'/ d'/c'/b/c'/ b/c'/d'/c'/ b/a/g/f/ | 
[V:2] z2 [G,2=B,2][G,2B,2][G,2B,2][G,2B,2][G,2B,2] | 
[V:1] ^defe .e2 z2 c/=d/e/f/g/a/=b/c'/ | 
[V:2] z2 [C,2C2][C,2C2][C,2C2] E,,2E,2 | 
[V:1] c'dd2- d>c'_e>c' c/d/=e/f/g/a/=b/c'/ & c8c4 | 
[V:2] F,,2!trill!F,>E, F,2^F,2 G,2G,,2 | 
[V:1] c'ff2- f>c'^f>c' c/d/e/=f/g/a/=b/c'/ & c8c4 | 
[V:2] A,,2!trill!A,>^G, A,2A,,2 E,,2E,2 | 
[V:1] x8{/e//} d3c & ^g/a/=b/a/=g/f/e/d/c4=B4 | 
[V:2] C2^CDx8 & F,2F,2 [G,2E2][G,2E2][G,2F2][G,2F2] | 
[V:1] c12- & c8c2^c2 | 
[V:2] [=C2E2] C,2 (3CDC (3_B,CB, (3A,B,A, (3G,A,G, | 
[V:1] d4d3e/^f/ gabd & c4_B8- | 
[V:2] (3^F,G,F, (3D,E,D, (3B,CB, (3A,B,A, (3G,A,G, (3=F,G,F, | 
[V:1] c4-c3d/e/ =fgac & B4A8 | 
[V:2] (3E,F,E, (3C,D,C, (3A,B,A, (3G,A,G, (3F,G,F, (3E,F,E, | 
[V:1] B4-B2dc BAcB & A2G^FG4G=FAG | 
[V:2] D,4E,2C,2D,2B,,2 | 
[V:1] A2G/A/B/A/ G2 z2z4 & F4E2x6 | 
[V:2] C,2C2 (3=B,C.C, (3A,_B,.B,, (3^G,A,.A,, (3^F,=G,.G,, | 
[V:1] B/A/^G/A/c/B/A/B/ c2-c/A/c/A/ F2 z2 | 
[V:2] F,,2 z2 A,2-A,/C/A,/C/ A,2 z2 & x4F,6z2 | 
[V:1] e/d/^c/d/f/e/d/e/ f2-f/=c/f/c/ A2 z2 | 
[V:2] z4C2-C/F/C/F/ C2 z2 & z4A,6z2 | 
[V:1] g/f/e/f/ a/g/^f/g/ a/b/c'/b/ a/g/=f/e/ f/g/a/e/ f/c/d/A/ | 
[V:2] z4C4-C2D2- & z4A,4A,4 | 
[V:1] c/=B/A/B/ c/_B/A/B/ A2 z2z4 | 
[V:2] D2E2 F2x6 & G,2C2 F,2 z2 .[A,,A,].[B,,B,].[=B,,=B,].[C,C] | 
[V:1] [Ac][Ac][Ac][Ac] [Bc][Bc][Bc][Bc] [Bc][Ac][Gc][Fc] | 
[V:2] [F,,3F,3]G,/F,/ [E,,2E,2] z .[E,E] .[G,G].[F,F].[E,E].[D,D] | 
[V:1] [Ec][Fd][G2e2] z2 [F2f2] z2 [F2d2] | 
[V:2] [C,C][=B,,=B,][_B,,2_B,2] z2 [A,,2A,2] z2 [=B,,2_A,2] | 
[V:1] z2 [F2c2] z2 [C2F2] AGFG & x8E2DE | 
[V:2] z2 [C,2=A,2] z2 [C,2A,2] [C,2_B,2][C,2B,2] | 
[V:1] G2^G2 A2x6 & E4F2 z2 A/a/B/b/ =B/=b/c/c'/ | 
[V:2] [F,4-B,4][F,2A,2] z2z4 | 
[V:1] {/F/8} f3g/f/ e2 z e/e'/ f/f'/e/e'/ f/f'/d/d'/ | 
[V:2] A,3B,/A,/ G,2x6 & C,4>z4z4 | 
[V:1] c/c'/=B/=b/ _B/_b/ z z2 z g (3c'af (3bge | 
[V:2] [C,,C,][D,,D,][E,,2E,2] z2 z [E,B,] [F,2A,2][G,2B,2] | 
[V:1] x8AGFG & (3fcA (3dBG F2 z2E4 | 
[V:2] [A,2C2][B,,2G,2] [C,2A,2] z2[C,4B,4] | 
[V:1] F c=B_B A_AGF =AGFG & F2< x2x4E4 | 
[V:2] [F,2A,2] z2z4[C,4B,4] | 
[V:1] F.c.=B._B .A._A.G.F =AGFG & F2< x2x4E4 | 
[V:2] [F,2A,2] z2z4[C,4B,4] | 
[V:1] F2[K:clef=bass] x2x8 & F2C4[F,2A,2][E,2G,2][G,2B,2] | 
[V:2] [F,2A,2] z2 [A,,,2A,,2] z2 [C,,2C,2] z2 | 
[V:1] [E,8G,8B,8][F,2A,2] z2 |]  
[V:2] [F,,8C,8]-[F,,2C,2] z2 |]  


